X:1
T:Title
%%score { 1 | 2 }
L:1/8
M:4/4
K:Ab
V:1 treble nm="Grand Piano"
V:2 bass 
V:1
 z4 z2[Q:1/4=100] [CE]>[CA] | [Ec]3 [Ec] [Fd]2 [Ec]2 | F B3- B z B>A | G3 F E2 [Fd]2 | %4
[M:3/4] [Ec]6 |[M:1/4] [CE]>[CA] |[M:4/4] [Ec]3 [Ec] [Fd]2 [Ec]2 | F B3- B z B>A | G3 d F2 G2 | %9
[M:3/4] [CA]6 |[M:1/4] A>A |[M:4/4] [Fd]3 [Fd] [DF]2 [Fd]2 | d c3- c z e>e | %13
 [Ge]3 [GB] [Ac]2 [Bd]2 |[M:3/4] [Ac]6 |[M:1/4] [CE]>[CE] |[M:4/4] [CA]3 [CA] [Ec]2 [_Ge]2 | %17
 [Fe] [Fd]3- [Fd] z [Fd]>[Fd] | c4 B2 E2 |[M:3/4] [CA]6 |] %20
V:2
 z4 z2 [A,,A,]>[A,,A,] | [A,,A,]3 [A,,A,] [A,,A,]2 [A,,A,]2 | %2
 [D,A,D] [D,F,D]3- [D,F,D] z [D,F,D]>[D,B,D] | [E,B,D]3 [E,A,D] [E,G,D]2 [E,G,]2 | %4
[M:3/4] [A,,A,]6 |[M:1/4] [A,,A,]>[A,,A,] |[M:4/4] [A,,A,]3 [A,,A,] [A,,A,]2 [A,,A,]2 | %7
 [D,A,D] [D,F,D]3- [D,F,D] z [D,F,D]>[D,B,D] | [E,B,D]3 [E,G,F] [E,A,D]2 [E,B,D]2 | %9
[M:3/4] [A,,A,]6 |[M:1/4][K:treble] [A,_G]>[A,G] |[M:4/4][K:bass] [D,A,]3 [D,A,] [D,A,]2 [D,A,]2 | %12
 [A,F] [A,E]3- [A,E] z [A,CA]>[A,CA] | [E,B,]3 [E,E] [E,E]2 [G,E]2 |[M:3/4] [A,E]6 | %15
[M:1/4] [A,,A,]>[A,,A,] |[M:4/4] [A,,A,]3 [A,,A,] [A,,A,]2 [C,A,]2 | %17
 [D,A,] [D,A,]3- [D,A,] z [D,A,]>[D,A,] | [E,A,E]4 [E,G,D]2 [E,G,D]2 |[M:3/4] [A,,E,A,]6 |] %20

